src/assets/folderIcon.svg

<svg width="21" height="17" viewBox="0 0 21 17" fill="none" xmlns="http://www.w3.org/2000/svg">
<g clip-path="url(#clip0)">
<path fill-rule="evenodd" clip-rule="evenodd" d="M19.3408 2.64984H12.4607C11.0913 2.64984 10.7323 2.2286 10.2774 1.69579C9.72205 1.04597 9.09344 0.30957 6.87822 0.30957H2.20475C1.56058 0.30957 1.03638 0.834569 1.03638 1.47971V15.5213C1.03638 16.1665 1.56058 16.6915 2.20475 16.6915H19.3408C19.985 16.6915 20.5092 16.1665 20.5092 15.5213V3.81998C20.5092 3.17484 19.985 2.64984 19.3408 2.64984ZM19.7303 15.5213C19.7303 15.7359 19.555 15.9114 19.3408 15.9114H2.20475C1.98978 15.9114 1.81529 15.7359 1.81529 15.5213V1.47971C1.81529 1.26442 1.98978 1.08966 2.20475 1.08966H6.87822C8.73438 1.08966 9.19625 1.63028 9.68542 2.20285C10.1761 2.77855 10.7323 3.42993 12.4607 3.42993H19.3408C19.555 3.42993 19.7303 3.60469 19.7303 3.81998V15.5213Z" fill="#8FA4B5" stroke="#8FA4B5" stroke-width="0.3" stroke-linecap="round" stroke-linejoin="round"/>
<path fill-rule="evenodd" clip-rule="evenodd" d="M20.1197 5.25488H1.42583C1.21087 5.25488 1.03638 5.43492 1.03638 5.6567C1.03638 5.87849 1.21087 6.05852 1.42583 6.05852H20.1197C20.3347 6.05852 20.5092 5.87849 20.5092 5.6567C20.5092 5.43492 20.3347 5.25488 20.1197 5.25488Z" fill="#8FA4B5" stroke="#8FA4B5" stroke-width="0.3" stroke-linecap="round" stroke-linejoin="round"/>
</g>
<defs>
<clipPath id="clip0">
<rect x="0.727295" width="20.091" height="17.0001" fill="white"/>
</clipPath>
</defs>
</svg>

<svg width="21" height="17" viewBox="0 0 21 17" fill="none" xmlns="http://www.w3.org/2000/svg"><g clip-path="url(#clip0)" fill-rule="evenodd" clip-rule="evenodd" fill="#8FA4B5" stroke="#8FA4B5" stroke-width=".3" stroke-linecap="round" stroke-linejoin="round"><path d="M19.34 2.65h-6.88c-1.369 0-1.728-.421-2.183-.954C9.722 1.046 9.093.31 6.878.31H2.205a1.17 1.17 0 00-1.169 1.17V15.52c0 .645.525 1.17 1.169 1.17H19.34a1.17 1.17 0 001.168-1.17V3.82a1.17 1.17 0 00-1.168-1.17zm.39 12.871a.39.39 0 01-.39.39H2.206a.39.39 0 01-.39-.39V1.48a.39.39 0 01.39-.39h4.673c1.856 0 2.318.54 2.807 1.113.491.576 1.047 1.227 2.776 1.227h6.88a.39.39 0 01.39.39v11.701z"/><path d="M20.12 5.255H1.426c-.215 0-.39.18-.39.402 0 .221.175.402.39.402H20.12c.215 0 .39-.18.39-.402a.396.396 0 00-.39-.402z"/></g><defs><clipPath id="clip0"><path fill="#fff" d="M.727 0h20.091v17H.727z"/></clipPath></defs></svg>
